X:769
L:1/8
M:3/4
K:G
 GB | d2 d2 B2 | e2 d2 (dc) | B2 (BA)"^(a)" (GB) | A4"^(c)" (GA) | (BA)"^b" G2 E2 | D2 G2 (GA) | 
 (Bd) B2 A2 | G4 || B2 BA"^(a)" G2 | A4 B2 A2 G2"^b" | D2 G2 GA ||

